X: 1
T: Bawa's Delight
C: Ed Pearlman (1982)
Z: 1999 John Chambers <jc:trillian.mit.edu>
R: strathspey
M: 4/4
L: 1/8
K: D
a>g |\
"D"f>a g>f "A"f>g f>e | "Bm(D)"d>e f>d "G"B2 d>B | "D"A>G F>G "Bm"A>B d>e |\
[1 "Em"f<a g>f "A7"e2 :|[2 "A7"f>A e>A "D"d2 |]
|: A>G |\
"D"F>D F>A "Bm"d2 e>f | "G"g>e f>d "A7"B2{c}d>e | "D"f>A ~A2 "A7"g>A ~A2 |\
[1 "D"f>A ~A2 "A7"e2 :|[2 "D"f>A "A7"e>A "D"d2 |]
